src/assets/icons/icons-origin/CopyOutline.svg

<svg width="24" height="24" viewBox="0 0 24 24" xmlns="http://www.w3.org/2000/svg">
  <path d="M18 21H12C11.2044 21 10.4413 20.6839 9.87868 20.1213C9.31607 19.5587 9 18.7956 9 18V12C9 11.2044 9.31607 10.4413 9.87868 9.87868C10.4413 9.31607 11.2044 9 12 9H18C18.7956 9 19.5587 9.31607 20.1213 9.87868C20.6839 10.4413 21 11.2044 21 12V18C21 18.7956 20.6839 19.5587 20.1213 20.1213C19.5587 20.6839 18.7956 21 18 21ZM12 11C11.7348 11 11.4804 11.1054 11.2929 11.2929C11.1054 11.4804 11 11.7348 11 12V18C11 18.2652 11.1054 18.5196 11.2929 18.7071C11.4804 18.8946 11.7348 19 12 19H18C18.2652 19 18.5196 18.8946 18.7071 18.7071C18.8946 18.5196 19 18.2652 19 18V12C19 11.7348 18.8946 11.4804 18.7071 11.2929C18.5196 11.1054 18.2652 11 18 11H12Z" fill="currentColor" />
  <path d="M9.73 15H5.67C4.96268 14.9974 4.28509 14.7152 3.78494 14.2151C3.28478 13.7149 3.00263 13.0373 3 12.33V5.67C3.00263 4.96268 3.28478 4.28509 3.78494 3.78494C4.28509 3.28478 4.96268 3.00263 5.67 3H12.33C13.0373 3.00263 13.7149 3.28478 14.2151 3.78494C14.7152 4.28509 14.9974 4.96268 15 5.67V9.4H13V5.67C13 5.49231 12.9294 5.32189 12.8038 5.19624C12.6781 5.07059 12.5077 5 12.33 5H5.67C5.49231 5 5.32189 5.07059 5.19624 5.19624C5.07059 5.32189 5 5.49231 5 5.67V12.33C5 12.5077 5.07059 12.6781 5.19624 12.8038C5.32189 12.9294 5.49231 13 5.67 13H9.73V15Z" fill="currentColor" />
</svg>

<svg width="24" height="24" viewBox="0 0 24 24" xmlns="http://www.w3.org/2000/svg">
  <path d="M18 21h-6a3 3 0 0 1-3-3v-6a3 3 0 0 1 3-3h6a3 3 0 0 1 3 3v6a3 3 0 0 1-3 3Zm-6-10a1 1 0 0 0-1 1v6a1 1 0 0 0 1 1h6a1 1 0 0 0 1-1v-6a1 1 0 0 0-1-1h-6Z" fill="currentColor"/>
  <path d="M9.73 15H5.67A2.68 2.68 0 0 1 3 12.33V5.67A2.68 2.68 0 0 1 5.67 3h6.66A2.68 2.68 0 0 1 15 5.67V9.4h-2V5.67a.67.67 0 0 0-.67-.67H5.67a.67.67 0 0 0-.67.67v6.66a.67.67 0 0 0 .67.67h4.06v2Z" fill="currentColor"/>
</svg>
